X: 27
M:6/8
L:1/8
K:D
vAAB "4"{e}dcd | efd b2z | ka3 kf3  | efd BdB |
 AAB "4"{e}dcd | efd b2z | ka3 kf3  | edd d2z :|
|:v"3"{a}gfg bag | fef agf | ede gfe | fdB BdB |


